dist/svg/u1F950.svg

<?xml version="1.0" encoding="UTF-8"?><svg id="Layer_1" xmlns="http://www.w3.org/2000/svg" viewBox="0 0 40 40"><g><path d="M9.12218,35.11215c.48151,.48151,.98253,.93162,1.5005,1.35033,2.65516,2.14669,6.51076-.07631,6.05806-3.46058-.26293-1.96565-.14049-3.97232,.36415-5.89971l-12.69108-.00004c.86615,2.932,2.45448,5.6961,4.76838,8.00999Z" style="fill:#f77f00;"/><path d="M26.94395,17.30466c2.03677-.58693,4.17063-.746,6.25906-.46645,3.40285,.45553,5.5993-3.4218,3.43551-6.08731-.41189-.50745-.85397-.99851-1.32628-1.47083-2.41277-2.41301-5.30686-4.03777-8.36828-4.88214v12.90673Z" style="fill:#f77f00;"/><path d="M3.70579,15.88279c-1.28604,3.53653-1.54313,7.3621-.77237,11.01455,.18948,.89792,.98809,1.53978,1.90579,1.53978h11.90825c.39713-1.51697,1.01924-2.98678,1.86601-4.35765L3.71605,15.87892c-.00384-.00211-.00876-.00025-.01026,.00387Z" style="fill:#ff9c00;"/><path d="M15.2433,4.21747c.79678,1.44747,8.18462,14.86852,8.19491,14.88721l.00071-.00044c1.37952-.91467,2.86748-1.59435,4.41022-2.03889V4.59237c.00001-.71889-.51279-1.32738-1.21638-1.47487-3.75937-.78806-7.69823-.48506-11.32108,.91984-.07238,.02807-.1058,.11212-.06836,.18013Z" style="fill:#ff9c00;"/><path d="M3.55415,16.16287l14.89465,8.19905,.005-.0013c.70805-1.14575,1.5569-2.22918,2.55072-3.22301,.85575-.85575,1.7803-1.599,2.75137-2.24284L15.51394,3.9221c-.4867-.88416-1.58625-1.24689-2.49072-.79907-2.00529,.99287-3.89427,2.31078-5.59012,3.95552-2.0274,1.9663-3.59369,4.22422-4.70013,6.64111-.41167,.89924-.04523,1.96627,.82117,2.4432Z" style="fill:#ffb72d;"/></g><rect width="40" height="40" style="fill:none;"/></svg>

<svg id="Layer_1" data-name="Layer 1" xmlns="http://www.w3.org/2000/svg" viewBox="0 0 40 40"><defs><style>.cls-1{fill:#f77f00;}.cls-2{fill:#ff9c00;}.cls-3{fill:#ffb72d;}.cls-4{fill:none;}</style></defs><path class="cls-1" d="M9.122,35.112a18.971,18.971,0,0,0,1.5,1.35A3.747,3.747,0,0,0,16.681,33a15.293,15.293,0,0,1,.364-5.9H4.354A18.85,18.85,0,0,0,9.122,35.112Z"/><path class="cls-1" d="M26.944,17.305a15.3,15.3,0,0,1,6.259-.467,3.749,3.749,0,0,0,3.436-6.087,19.077,19.077,0,0,0-9.7-6.353Z"/><path class="cls-2" d="M3.706,15.883A20.121,20.121,0,0,0,2.933,26.9a1.949,1.949,0,0,0,1.906,1.54H16.747a16.05,16.05,0,0,1,1.866-4.358l-14.9-8.2A.007.007,0,0,0,3.706,15.883Z"/><path class="cls-2" d="M15.243,4.217l8.195,14.888h0a16,16,0,0,1,4.41-2.039V4.592a1.513,1.513,0,0,0-1.216-1.474,19.978,19.978,0,0,0-11.321.919A.128.128,0,0,0,15.243,4.217Z"/><path class="cls-3" d="M3.554,16.163l14.9,8.2h0a17.666,17.666,0,0,1,5.3-5.466L15.514,3.922a1.9,1.9,0,0,0-2.491-.8,22.207,22.207,0,0,0-10.29,10.6A1.9,1.9,0,0,0,3.554,16.163Z"/><rect class="cls-4" width="40" height="40"/></svg>
